images/icons/contact-page/contact-twitter.svg

<svg viewBox="0 0 48 39" xmlns="http://www.w3.org/2000/svg"><path d="m120 33.6116353c-1.76217.7873524-3.665313 1.312254-5.65244 1.5462101 2.033619-1.2192714 3.590327-3.1494095 4.329688-5.445479-1.903143 1.1247891-4.011748 1.9496345-6.252328 2.3905518-1.799662-1.9121415-4.358183-3.1029182-7.189652-3.1029182-5.4364803 0-9.8426541 4.4061738-9.8426541 9.8426545 0 .767856.0839842 1.5177154.2534525 2.2405799-8.1824658-.4124227-15.4381054-4.3311879-20.2926952-10.2910704-.8443416 1.4532275-1.3302505 3.1494095-1.3302505 4.949072 0 3.4118603 1.7336749 6.4292945 4.3776792 8.1929638-1.6121978-.0464912-3.1299132-.4964069-4.4616635-1.2282697v.1214773c0 4.7706055 3.3938637 8.7553583 7.9020184 9.6536899-.8248454.2249578-1.696182.346435-2.5960133.346435-.6373805 0-1.2462663-.0659876-1.8551521-.1784665 1.2567643 3.9082672 4.8935824 6.7577329 9.194776 6.8432169-3.3743673 2.6425045-7.611073 4.218709-12.2317066 4.218709-.7963507 0-1.5747047-.0464913-2.3530588-.1409736 4.3686809 2.8029745 9.541211 4.4241705 15.1006686 4.4241705 18.1091044 0 28.0162474-15.0061864 28.0162474-28.016247 0-.4304193-.008999-.85334-.028495-1.2747609 1.92114-1.3782416 3.590327-3.1119166 4.911579-5.0900457z" fill="#1399b9" fill-rule="evenodd" transform="translate(-72 -29)"/></svg>

<svg viewBox="0 0 48 39" version="1.1" xmlns="http://www.w3.org/2000/svg" xmlns:xlink="http://www.w3.org/1999/xlink">
    <g stroke="none" stroke-width="1" fill="none" fill-rule="evenodd">
        <g transform="translate(-304.000000, -465.000000)" fill="#1399B9">
            <g transform="translate(232.000000, 436.000000)">
                <path d="M120,33.6116353 C118.23783,34.3989877 116.334687,34.9238893 114.34756,35.1578454 C116.381179,33.938574 117.937887,32.0084359 118.677248,29.7123664 C116.774105,30.8371555 114.6655,31.6620009 112.42492,32.1029182 C110.625258,30.1907767 108.066737,29 105.235268,29 C99.7987877,29 95.3926139,33.4061738 95.3926139,38.8426545 C95.3926139,39.6105105 95.4765981,40.3603699 95.6460664,41.0832344 C87.4636006,40.6708117 80.207961,36.7520465 75.3533712,30.792164 C74.5090296,32.2453915 74.0231207,33.9415735 74.0231207,35.741236 C74.0231207,39.1530963 75.7567956,42.1705305 78.4007999,43.9341998 C76.7886021,43.8877086 75.2708867,43.4377929 73.9391364,42.7059301 L73.9391364,42.8274074 C73.9391364,47.5980129 77.3330001,51.5827657 81.8411548,52.4810973 C81.0163094,52.7060551 80.1449728,52.8275323 79.2451415,52.8275323 C78.607761,52.8275323 77.9988752,52.7615447 77.3899894,52.6490658 C78.6467537,56.557333 82.2835718,59.4067987 86.5847654,59.4922827 C83.2103981,62.1347872 78.9736924,63.7109917 74.3530588,63.7109917 C73.5567081,63.7109917 72.7783541,63.6645004 72,63.5700181 C76.3686809,66.3729926 81.541211,67.9941886 87.1006686,67.9941886 C105.209773,67.9941886 115.116916,52.9880022 115.116916,39.9779416 C115.116916,39.5475223 115.107917,39.1246016 115.088421,38.7031807 C117.009561,37.3249391 118.678748,35.5912641 120,33.613135 L120,33.6116353 Z"></path>
            </g>
        </g>
    </g>
</svg>
